the-dragons-tail.svg

<svg width="96" height="128" viewBox="0 0 6 8" xmlns="http://www.w3.org/2000/svg"><path d="m3 0 1 1-2 2 2 2-1 1-1-1 2-2-2-2m-1 5 1 1-1 1-1-1m5-1 1 1-1 1-1-1"/></svg>

<svg viewBox="0 0 6 8" xmlns="http://www.w3.org/2000/svg"><path d="M3 0L4 1 2 3 4 5 3 6 2 5 4 3 2 1M1 6L2 7 1 8 0 7M5 6L6 7 5 8 4 7"/></svg>
